X:35
T:Grimstock
O:Cecil Sharp, 1911
M:6/8
L:1/8
R:Jig
P:(AAB)3
K:Cmaj clef=treble
[||: "C"c'2b c'2g | "Am"abc' "G7"b2g | "C"efg "F"a2g | "Dm"fge "G7"d2"C"c
| "C"c'2g c'2g | "Am"a>bc' "G7"b2g | "C"efg "F"a2g | "G7"f>ed "C"c3 :|
[||: "C"ccd ecd | ecd ec"(G)"G | "C"ccd ecd | "G7"ecd "C"c3 :|

